resources/svg/screen-alt-o.svg

<svg xmlns="http://www.w3.org/2000/svg" viewBox="0 0 15 15" fill="none"><path d="M2 14.5H13M7.5 10.5V14.5M0.5 1.5L0.5 9.5C0.5 10.0523 0.947716 10.5 1.5 10.5L13.5 10.5C14.0523 10.5 14.5 10.0523 14.5 9.5V1.5C14.5 0.947716 14.0523 0.500001 13.5 0.500001L1.5 0.5C0.947716 0.5 0.5 0.947716 0.5 1.5Z" stroke="black"/></svg>

<svg xmlns="http://www.w3.org/2000/svg" viewBox="0 0 15 15" fill="none"><path d="M2 14.5h11m-5.5-4v4m-7-13v8a1 1 0 001 1h12a1 1 0 001-1v-8a1 1 0 00-1-1h-12a1 1 0 00-1 1z" stroke="currentColor"/></svg>
